;FLAVOR:UltiGCode
;TIME:2005
;MATERIAL:4013
;MATERIAL2:0
;NOZZLE_DIAMETER:0.4
;MINX:56.795
;MINY:31.795
;MINZ:0.27
;MAXX:165.705
;MAXY:91.205
;MAXZ:1.47
;TARGET_MACHINE.NAME:Ultimaker 2+
;Generated with Cura_SteamEngine 5.10.0
G0 F3000 Y50 ;avoid prime blob
M82 ;absolute extrusion mode
G92 E0
G92 E0
G10
;LAYER_COUNT:9
;LAYER:0
M107
G0 F9000 X58.51 Y35.742 Z0.27
;TYPE:SKIRT
G11
G1 F1800 X60.62 Y33.495 E0.3329
G1 X63.676 Y31.947 E0.70287
G1 X64.314 Y31.795 E0.77371
G1 X94.587 Y31.795 E4.04319
G1 X97.398 Y32.907 E4.36967
G1 X99.617 Y34.643 E4.67395
G1 X101.235 Y37.024 E4.98485
G1 X102.033 Y39.801 E5.2969
G1 X102.14 Y40.524 E5.37584
G1 X102.202 Y81.549 E9.80654
G1 X101.705 Y84.506 E10.13038
G1 X101.152 Y86.094 E10.31198
G1 X99.48 Y88.556 E10.6334
G1 X96.991 Y90.325 E10.96319
G1 X94.28 Y91.205 E11.27102
G1 X64.543 Y91.204 E14.48261
G1 X61.762 Y90.193 E14.80219
G1 X59.318 Y88.364 E15.13187
G1 X58.652 Y87.563 E15.24438
G1 X57.326 Y84.829 E15.57254
G1 X56.795 Y82.342 E15.84719
G1 X56.799 Y40.651 E20.34982
G1 X57.331 Y38.159 E20.62502
G1 X58.51 Y35.742 E20.91546
G0 F9000 X58.843 Y35.972
G1 F1800 X60.864 Y33.82 E21.2343
G1 X63.817 Y32.324 E21.59181
G1 X64.36 Y32.195 E21.65209
G1 X94.511 Y32.195 E24.9084
G1 X97.198 Y33.258 E25.22048
G1 X99.32 Y34.918 E25.51145
G1 X100.869 Y37.197 E25.80905
G1 X101.637 Y39.86 E26.10837
G1 X101.744 Y40.583 E26.18731
G1 X101.802 Y81.55 E30.61175
G1 X101.327 Y84.375 E30.92113
G1 X100.792 Y85.912 E31.0969
G1 X99.189 Y88.272 E31.40501
G1 X96.807 Y89.965 E31.72063
G1 X94.219 Y90.805 E32.01449
G1 X64.614 Y90.804 E35.21183
G1 X61.954 Y89.837 E35.5175
G1 X59.597 Y88.073 E35.83545
G1 X58.991 Y87.344 E35.93783
G1 X57.707 Y84.697 E36.25557
G1 X57.195 Y82.3 E36.52028
G1 X57.199 Y40.692 E41.01395
G1 X57.711 Y38.293 E41.27888
G1 X58.843 Y35.972 E41.55777
G0 F9000 X59.176 Y36.202
G1 F1800 X61.108 Y34.145 E41.86255
G1 X63.998 Y32.681 E42.21243
G1 X64.36 Y32.595 E42.25261
G1 X94.435 Y32.595 E45.50071
G1 X96.998 Y33.609 E45.79839
G1 X99.023 Y35.193 E46.07605
G1 X100.503 Y37.371 E46.36045
G1 X101.241 Y39.919 E46.64694
G1 X101.348 Y40.642 E46.72588
G1 X101.402 Y81.551 E51.14405
G1 X100.949 Y84.243 E51.43888
G1 X100.431 Y85.731 E51.60904
G1 X98.898 Y87.988 E51.90371
G1 X96.623 Y89.605 E52.20515
G1 X94.158 Y90.405 E52.48504
G1 X64.685 Y90.404 E55.66812
G1 X62.146 Y89.481 E55.95989
G1 X59.876 Y87.782 E56.26611
G1 X59.33 Y87.125 E56.35837
G1 X58.087 Y84.564 E56.66582
G1 X57.595 Y82.259 E56.92036
G1 X57.599 Y40.733 E61.40517
G1 X58.091 Y38.427 E61.65983
G1 X59.176 Y36.202 E61.92717
G0 F9000 X59.509 Y36.432
G1 F1800 X61.352 Y34.47 E62.2179
G1 X64.179 Y33.038 E62.56015
G1 X64.36 Y32.995 E62.58024
G1 X94.359 Y32.995 E65.82013
G1 X96.796 Y33.959 E66.10317
G1 X98.727 Y35.47 E66.36798
G1 X100.137 Y37.544 E66.63883
G1 X100.845 Y39.978 E66.9126
G1 X100.952 Y40.701 E66.99153
G1 X101.002 Y81.551 E71.40334
G1 X100.571 Y84.112 E71.68381
G1 X100.071 Y85.549 E71.84814
G1 X98.607 Y87.704 E72.1295
G1 X96.439 Y89.245 E72.41677
G1 X94.097 Y90.005 E72.68269
G1 X64.756 Y90.004 E75.85152
G1 X62.338 Y89.125 E76.12938
G1 X60.155 Y87.491 E76.42388
G1 X59.669 Y86.906 E76.50601
G1 X58.468 Y84.432 E76.80302
G1 X57.995 Y82.217 E77.04764
G1 X57.999 Y40.774 E81.52348
G1 X58.471 Y38.561 E81.76786
G1 X59.509 Y36.432 E82.02367
G0 F9000 X59.842 Y36.662
G1 F1800 X61.596 Y34.795 E82.30033
G1 X64.36 Y33.395 E82.63495
G1 X94.283 Y33.395 E85.86663
G1 X96.596 Y34.31 E86.13527
G1 X98.43 Y35.745 E86.38677
G1 X99.771 Y37.717 E86.64432
G1 X100.449 Y40.037 E86.90536
G1 X100.556 Y40.76 E86.9843
G1 X100.602 Y81.551 E91.38973
G1 X100.193 Y83.981 E91.65586
G1 X99.711 Y85.367 E91.81434
G1 X98.316 Y87.42 E92.08241
G1 X96.256 Y88.884 E92.35535
G1 X94.035 Y89.605 E92.60754
G1 X64.827 Y89.604 E95.76201
G1 X62.53 Y88.769 E96.02596
G1 X60.432 Y87.199 E96.30897
G1 X60.009 Y86.689 E96.38053
G1 X58.848 Y84.299 E96.66749
G1 X58.395 Y82.176 E96.90194
G1 X58.399 Y40.816 E101.36882
G1 X58.852 Y38.694 E101.60316
G1 X59.842 Y36.662 E101.84727
G0 F9000 X60.175 Y36.892
G1 F1800 X61.84 Y35.12 E102.10988
G1 X64.456 Y33.795 E102.42658
G1 X94.207 Y33.795 E105.63968
G1 X96.396 Y34.661 E105.89392
G1 X98.133 Y36.02 E106.13211
G1 X99.404 Y37.89 E106.37631
G1 X100.053 Y40.096 E106.62465
G1 X100.16 Y40.819 E106.70359
G1 X100.202 Y81.551 E111.10264
G1 X99.815 Y83.85 E111.35443
G1 X99.351 Y85.185 E111.50707
G1 X98.025 Y87.136 E111.76184
G1 X96.072 Y88.524 E112.0206
G1 X93.974 Y89.205 E112.25883
G1 X64.898 Y89.204 E115.39903
G1 X62.722 Y88.413 E115.64909
G1 X60.709 Y86.907 E115.9206
G1 X60.349 Y86.472 E115.98158
G1 X59.229 Y84.167 E116.25835
G1 X58.795 Y82.134 E116.48286
G1 X58.799 Y40.857 E120.94078
G1 X59.232 Y38.827 E121.16495
G1 X60.175 Y36.892 E121.39743
G0 F9000 X60.509 Y37.12
G1 F1800 X62.082 Y35.446 E121.64551
G1 X64.552 Y34.195 E121.94454
G1 X94.131 Y34.195 E125.13907
G1 X96.196 Y35.012 E125.37891
G1 X97.836 Y36.295 E125.60379
G1 X99.038 Y38.063 E125.83468
G1 X99.657 Y40.155 E126.0703
G1 X99.764 Y40.878 E126.14924
G1 X99.802 Y81.551 E130.54192
G1 X99.437 Y83.719 E130.77936
G1 X98.991 Y85.003 E130.92616
G1 X97.734 Y86.852 E131.16763
G1 X95.888 Y88.164 E131.41222
G1 X93.913 Y88.805 E131.63647
G1 X64.969 Y88.804 E134.76243
G1 X62.914 Y88.057 E134.99857
G1 X60.949 Y86.587 E135.26361
G1 X60.709 Y86.297 E135.30426
G1 X59.609 Y84.034 E135.57601
G1 X59.195 Y82.093 E135.79035
G1 X59.199 Y40.899 E140.2393
G1 X59.613 Y38.96 E140.45344
G1 X60.509 Y37.12 E140.67447
G0 F9000 X60.843 Y37.348
G1 F1800 X62.324 Y35.772 E140.90803
G1 X64.648 Y34.595 E141.18938
G1 X94.055 Y34.595 E144.36534
G1 X95.996 Y35.363 E144.59078
G1 X97.539 Y36.57 E144.80235
G1 X98.673 Y38.238 E145.02018
G1 X99.261 Y40.214 E145.24284
G1 X99.368 Y40.937 E145.32177
G1 X99.402 Y81.551 E149.70809
G1 X99.059 Y83.588 E149.93118
G1 X98.631 Y84.821 E150.07214
G1 X97.443 Y86.568 E150.30031
G1 X95.704 Y87.804 E150.53072
G1 X93.852 Y88.405 E150.74101
G1 X65.04 Y88.404 E153.8527
G1 X63.106 Y87.701 E154.07495
G1 X61.189 Y86.267 E154.3335
G1 X61.069 Y86.122 E154.35383
G1 X59.99 Y83.901 E154.6205
G1 X59.595 Y82.051 E154.82481
G1 X59.599 Y40.94 E159.26479
G1 X59.993 Y39.093 E159.46876
G1 X60.843 Y37.348 E159.67839
G0 F9000 X61.177 Y37.576
G1 F1800 X62.566 Y36.098 E159.89744
G1 X64.744 Y34.995 E160.16111
G1 X93.979 Y34.995 E163.31849
G1 X95.796 Y35.714 E163.52953
G1 X97.242 Y36.845 E163.72779
G1 X98.308 Y38.413 E163.93256
G1 X98.865 Y40.273 E164.14226
G1 X98.972 Y40.996 E164.22119
G1 X99.002 Y81.551 E168.60113
G1 X98.681 Y83.457 E168.80988
G1 X98.271 Y84.639 E168.945
G1 X97.152 Y86.284 E169.15987
G1 X95.52 Y87.444 E169.37611
G1 X93.791 Y88.005 E169.57243
G1 X65.111 Y88.004 E172.66987
G1 X63.298 Y87.345 E172.8782
G1 X61.429 Y85.947 E173.13028
G1 X60.37 Y83.768 E173.39193
G1 X59.995 Y82.01 E173.58606
G1 X59.999 Y40.982 E178.01709
G1 X60.374 Y39.226 E178.21101
G1 X61.177 Y37.576 E178.40919
G0 F9000 X61.511 Y37.804
G1 F1800 X62.808 Y36.424 E178.61373
G1 X64.84 Y35.395 E178.85972
G1 X93.903 Y35.395 E181.99852
G1 X95.594 Y36.064 E182.19492
G1 X96.946 Y37.122 E182.38033
G1 X97.942 Y38.587 E182.57166
G1 X98.469 Y40.332 E182.76852
G1 X98.576 Y41.055 E182.84746
G1 X98.602 Y81.551 E187.22103
G1 X98.303 Y83.326 E187.41543
G1 X97.911 Y84.457 E187.5447
G1 X96.861 Y86 E187.74627
G1 X95.337 Y87.083 E187.94819
G1 X93.729 Y87.605 E188.13078
G1 X65.182 Y87.604 E191.21385
G1 X63.49 Y86.989 E191.40829
G1 X61.747 Y85.685 E191.64338
G1 X60.751 Y83.635 E191.88953
G1 X60.395 Y81.968 E192.07362
G1 X60.399 Y41.023 E196.49568
G1 X60.754 Y39.359 E196.67944
G1 X61.511 Y37.804 E196.86622
G0 F9000 X61.845 Y38.032
G1 F1800 X63.05 Y36.75 E197.05624
G1 X64.936 Y35.795 E197.28455
G1 X93.827 Y35.795 E200.40478
G1 X95.394 Y36.415 E200.58678
G1 X96.649 Y37.397 E200.75888
G1 X97.576 Y38.761 E200.937
G1 X98.073 Y40.391 E201.12104
G1 X98.18 Y41.114 E201.19997
G1 X98.202 Y81.551 E205.56717
G1 X97.925 Y83.195 E205.74722
G1 X97.551 Y84.275 E205.87066
G1 X96.57 Y85.716 E206.05893
G1 X95.153 Y86.723 E206.24667
G1 X93.668 Y87.205 E206.41529
G1 X65.253 Y87.204 E209.48411
G1 X63.682 Y86.633 E209.66464
G1 X62.065 Y85.423 E209.88275
G1 X61.131 Y83.502 E210.11344
G1 X60.795 Y81.927 E210.28737
G1 X60.799 Y41.065 E214.70047
G1 X61.135 Y39.492 E214.87418
G1 X61.845 Y38.032 E215.04952
G0 F9000 X62.179 Y38.26
G1 F1800 X63.292 Y37.076 E215.22502
G1 X65.032 Y36.195 E215.43565
G1 X93.751 Y36.195 E218.53731
G1 X95.194 Y36.766 E218.70491
G1 X96.352 Y37.672 E218.8637
G1 X97.212 Y38.937 E219.0289
G1 X97.677 Y40.45 E219.19985
G1 X97.784 Y41.173 E219.27878
G1 X97.802 Y81.551 E223.63961
G1 X97.547 Y83.064 E223.80532
G1 X97.191 Y84.093 E223.92291
G1 X96.279 Y85.432 E224.09788
G1 X94.969 Y86.363 E224.27145
G1 X93.607 Y86.805 E224.4261
G1 X65.324 Y86.804 E227.48066
G1 X63.874 Y86.277 E227.64729
G1 X62.383 Y85.161 E227.84842
G1 X61.512 Y83.369 E228.06361
G1 X61.195 Y81.885 E228.2275
G1 X61.199 Y41.106 E232.63163
G1 X61.515 Y39.625 E232.79518
G1 X62.179 Y38.26 E232.95912
G0 F9000 X62.513 Y38.488
G1 F1800 X63.534 Y37.402 E233.1201
G1 X65.128 Y36.595 E233.31306
G1 X93.675 Y36.595 E236.39613
G1 X94.994 Y37.117 E236.54933
G1 X96.055 Y37.947 E236.69482
G1 X96.847 Y39.113 E236.84705
G1 X97.281 Y40.509 E237.00494
G1 X97.388 Y41.232 E237.08387
G1 X97.402 Y81.551 E241.43832
G1 X97.169 Y82.933 E241.58968
G1 X96.831 Y83.911 E241.70144
G1 X95.988 Y85.148 E241.86311
G1 X94.785 Y86.003 E242.0225
G1 X93.546 Y86.405 E242.16318
G1 X65.395 Y86.404 E245.20349
G1 X64.066 Y85.921 E245.35621
G1 X62.701 Y84.899 E245.54037
G1 X61.893 Y83.236 E245.74005
G1 X61.595 Y81.843 E245.8939
G1 X61.599 Y41.148 E250.28896
G1 X61.896 Y39.758 E250.44247
G1 X62.513 Y38.488 E250.59496
G0 F9000 X62.847 Y38.716
G1 F1800 X63.776 Y37.728 E250.74142
G1 X65.224 Y36.995 E250.9167
G1 X93.599 Y36.995 E253.9812
G1 X94.794 Y37.468 E254.12
G1 X95.758 Y38.222 E254.25218
G1 X96.482 Y39.288 E254.39135
G1 X96.885 Y40.568 E254.53628
G1 X96.992 Y41.291 E254.61522
G1 X97.002 Y81.551 E258.9633
G1 X96.791 Y82.802 E259.10031
G1 X96.47 Y83.732 E259.20657
G1 X95.699 Y84.862 E259.35431
G1 X94.601 Y85.643 E259.49983
G1 X93.485 Y86.005 E259.62654
G1 X65.466 Y86.004 E262.65259
G1 X64.258 Y85.565 E262.7914
G1 X63.019 Y84.637 E262.95859
G1 X62.274 Y83.103 E263.14276
G1 X61.995 Y81.801 E263.28657
G1 X61.999 Y41.189 E267.67267
G1 X62.276 Y39.891 E267.81601
G1 X62.847 Y38.716 E267.9571
G0 F9000 X63.181 Y38.944
G1 F1800 X64.018 Y38.054 E268.08905
G1 X65.32 Y37.395 E268.24665
G1 X93.523 Y37.395 E271.29257
G1 X94.594 Y37.819 E271.41698
G1 X95.461 Y38.497 E271.53584
G1 X96.119 Y39.466 E271.66234
G1 X96.489 Y40.627 E271.79395
G1 X96.596 Y41.35 E271.87288
G1 X96.602 Y81.551 E276.21459
G1 X96.413 Y82.672 E276.33736
G1 X96.11 Y83.55 E276.43768
G1 X95.409 Y84.577 E276.57197
G1 X94.418 Y85.282 E276.70331
G1 X93.423 Y85.605 E276.8163
G1 X65.537 Y85.604 E279.82798
G1 X64.45 Y85.209 E279.95289
G1 X63.337 Y84.375 E280.1031
G1 X62.655 Y82.97 E280.27177
G1 X62.395 Y81.759 E280.40554
G1 X62.399 Y41.231 E284.78256
G1 X62.657 Y40.023 E284.91597
G1 X63.181 Y38.944 E285.04551
G0 F9000 X63.515 Y39.172
G1 F1800 X64.26 Y38.38 E285.16295
G1 X65.416 Y37.795 E285.30287
G1 X93.447 Y37.795 E288.33022
G1 X94.394 Y38.17 E288.44022
G1 X95.164 Y38.772 E288.54578
G1 X95.755 Y39.642 E288.65937
G1 X96.093 Y40.686 E288.77788
G1 X96.2 Y41.409 E288.85682
G1 X96.202 Y81.551 E293.19215
G1 X96.035 Y82.542 E293.30069
G1 X95.75 Y83.368 E293.39506
G1 X95.119 Y84.292 E293.5159
G1 X94.234 Y84.922 E293.63322
G1 X93.362 Y85.205 E293.73224
G1 X65.608 Y85.204 E296.72967
G1 X64.642 Y84.853 E296.84067
G1 X63.655 Y84.113 E296.9739
G1 X63.036 Y82.837 E297.12707
G1 X62.795 Y81.717 E297.25079
G1 X62.799 Y41.273 E301.61875
G1 X63.038 Y40.155 E301.74222
G1 X63.515 Y39.172 E301.86022
G0 F9000 X63.849 Y39.4
G1 F1800 X64.502 Y38.706 E301.96314
G1 X65.512 Y38.195 E302.08538
G1 X93.371 Y38.195 E305.09415
G1 X94.194 Y38.521 E305.18976
G1 X94.867 Y39.047 E305.28201
G1 X95.392 Y39.82 E305.38293
G1 X95.698 Y40.747 E305.48836
G1 X95.8 Y41.409 E305.5607
G1 X95.802 Y81.551 E309.89603
G1 X95.657 Y82.412 E309.99033
G1 X95.39 Y83.186 E310.07875
G1 X94.829 Y84.007 E310.18615
G1 X94.05 Y84.562 E310.28945
G1 X93.301 Y84.805 E310.37449
G1 X65.679 Y84.804 E313.35767
G1 X64.834 Y84.497 E313.45476
G1 X63.972 Y83.851 E313.5711
G1 X63.417 Y82.706 E313.70852
G1 X63.195 Y81.675 E313.82242
G1 X63.199 Y41.314 E318.18141
G1 X63.418 Y40.288 E318.29471
G1 X63.849 Y39.4 E318.40132
G0 F9000 X64.183 Y39.628
G1 F1800 X64.744 Y39.032 E318.48971
G1 X65.608 Y38.595 E318.59428
G1 X93.295 Y38.595 E321.58448
G1 X93.994 Y38.872 E321.66568
G1 X94.57 Y39.322 E321.74462
G1 X95.031 Y40 E321.83317
G1 X95.303 Y40.811 E321.92555
G1 X95.4 Y41.409 E321.99098
G1 X95.402 Y81.551 E326.32632
G1 X95.279 Y82.282 E326.40638
G1 X95.03 Y83.004 E326.48886
G1 X94.539 Y83.722 E326.5828
G1 X93.867 Y84.201 E326.67193
G1 X93.239 Y84.405 E326.74324
G1 X65.75 Y84.404 E329.71205
G1 X65.026 Y84.141 E329.79524
G1 X64.289 Y83.589 E329.89469
G1 X63.798 Y82.575 E330.01636
G1 X63.595 Y81.633 E330.12044
G1 X63.599 Y41.356 E334.47035
G1 X63.799 Y40.42 E334.57372
G1 X64.183 Y39.628 E334.66878
G0 F9000 X64.851 Y40.084
G1 F1800 X65.23 Y39.682 E334.72845
G1 X65.798 Y39.395 E334.79718
G1 X93.144 Y39.395 E337.75055
G1 X93.548 Y39.538 E337.79683
G1 X93.978 Y39.874 E337.85577
G1 X94.308 Y40.358 E337.91903
G1 X94.53 Y41.008 E337.99322
G1 X94.605 Y41.473 E338.04409
G1 X94.602 Y81.551 E342.37251
G1 X94.523 Y82.02 E342.42387
G1 X94.308 Y82.642 E342.49495
G1 X93.959 Y83.153 E342.56178
G1 X93.541 Y83.466 E342.61818
G1 X93.177 Y83.605 E342.66026
G1 X65.82 Y83.604 E345.61482
G1 X65.459 Y83.466 E345.65656
G1 X64.923 Y83.065 E345.72885
G1 X64.56 Y82.313 E345.81903
G1 X64.395 Y81.549 E345.90345
G1 X64.399 Y41.438 E350.23544
G1 X64.559 Y40.686 E350.31847
G1 X64.851 Y40.084 E350.39073
G0 F9000 X64.517 Y39.856
G1 F1800 X64.987 Y39.357 E350.46476
G1 X65.703 Y38.995 E350.55141
G1 X93.219 Y38.995 E353.52314
G1 X93.794 Y39.223 E353.58995
G1 X94.273 Y39.597 E353.65558
G1 X94.67 Y40.181 E353.73184
G1 X94.909 Y40.879 E353.81153
G1 X95 Y41.409 E353.8696
G1 X95.002 Y81.551 E358.20494
G1 X94.901 Y82.151 E358.27065
G1 X94.669 Y82.823 E358.34743
G1 X94.249 Y83.437 E358.42777
G1 X93.684 Y83.84 E358.50272
G1 X93.177 Y84.005 E358.56031
G1 X65.82 Y84.004 E361.51486
G1 X65.219 Y83.786 E361.58391
G1 X64.606 Y83.327 E361.66661
G1 X64.179 Y82.444 E361.77254
G1 X63.995 Y81.591 E361.86679
G1 X63.999 Y41.397 E366.20774
G1 X64.179 Y40.553 E366.30094
G1 X64.517 Y39.856 E366.3846
G10
G0 F9000 X64.447 Y39.791
G0 X65.614 Y38.935
G0 X121.295 Y38.225
G11
G1 F1800 X122.185 Y35.607 E366.68324
G1 X122.385 Y35.291 E366.72363
G1 X124.952 Y32.798 E367.11009
G1 X128.024 Y31.795 E367.4591
G1 X159.275 Y31.795 E370.83421
G1 X161.893 Y32.685 E371.13284
G1 X162.209 Y32.885 E371.17323
G1 X164.702 Y35.452 E371.55969
G1 X165.705 Y38.524 E371.9087
G1 X165.705 Y84.34 E376.85683
G1 X165.144 Y86.543 E377.10235
G1 X163.78 Y88.606 E377.36945
G1 X162.313 Y89.917 E377.58193
G1 X159.419 Y91.205 E377.92404
G1 X128.116 Y91.205 E381.30477
G1 X126.188 Y90.785 E381.51787
G1 X124.368 Y89.675 E381.74811
G1 X122.286 Y87.529 E382.07103
G1 X121.295 Y84.472 E382.4181
G1 X121.295 Y38.225 E387.41277
G0 F9000 X121.695 Y38.292
G1 F1800 X122.564 Y35.736 E387.70434
G1 X122.664 Y35.578 E387.72453
G1 X125.165 Y33.149 E388.10106
G1 X128.087 Y32.195 E388.43303
G1 X159.208 Y32.195 E391.7941
G1 X161.764 Y33.064 E392.08567
G1 X161.922 Y33.164 E392.10586
G1 X164.351 Y35.665 E392.48239
G1 X165.305 Y38.587 E392.81436
G1 X165.305 Y84.288 E397.75007
G1 X164.773 Y86.378 E397.98299
G1 X163.474 Y88.343 E398.23739
G1 X162.092 Y89.578 E398.43756
G1 X159.335 Y90.805 E398.76347
G1 X128.16 Y90.805 E402.13037
G1 X126.337 Y90.408 E402.33187
G1 X124.622 Y89.362 E402.54882
G1 X122.638 Y87.317 E402.85654
G1 X121.695 Y84.408 E403.18681
G1 X121.695 Y38.292 E408.16734
G0 F9000 X122.095 Y38.359
G1 F1800 X122.943 Y35.865 E408.45183
G1 X125.378 Y33.5 E408.81844
G1 X128.15 Y32.595 E409.13336
G1 X159.141 Y32.595 E412.48039
G1 X161.635 Y33.443 E412.76489
G1 X164 Y35.878 E413.13149
G1 X164.905 Y38.65 E413.44642
G1 X164.905 Y84.236 E418.36971
G1 X164.402 Y86.213 E418.59002
G1 X163.168 Y88.08 E418.83172
